X: 32
T:Polka bichouse
O:France
A:Massif Central
M:2/4
L:1/8
K:G
B/2c/2|dd d>e|dB c>d|cA B>c|AF A>B|AF GB/2c/2|
dd d>e|dB c>d|cA B>c|AF AB|cd d2|d2G2|G2d2|d2G2|G2d2|d2d2|d3||
